X:1
T:Polka pique : Y'a dix gars
Z:Roger Ngaret (94-95)
R:polka
C:Trad.
S:
A:Bretagne
Q:1/4=120
M:2/4
L:1/16
K:C
"C"G2c2 e2c2 | G2c2 "G"B2A2 | A2B2 d2B2 |1 A2B2 "C"G4 :|2\
"G"A2B2 "C"c4 |: e4 c4 | G2c2 "G"B2A2 | d4 B4 |1 \
A2B2 "C"G4 :|2 "G"A2B2 "C"c4 |]
%%rm
%%rm  Y'a dix gars qui veulent ma fille,             ]
%%rm  Y'en a neuf qui n'l'auront pas                 ] bis
%%rm  Pique-l mon gars Pierre, pique-l tu l'auras  ] bis
%%rm  ...
%%rm  Y'a deux gars qui veulent ma fille,
%%rm  Y'en a un qui l'aura pas
%%rm  Y'en a un qu'a d'la moustache
%%rm  Et y'a l'autre qui n'en a pas.
%%rm  Pique-l mon gars Pierre, pique-l tu l'auras  ] bis
